X: 34527
T: Ril Du Forgeron
R: reel
M: 4/4
K: Amixolydian
cdef gfed|cABA cded|cdef gfed|ceec e2 ed|
cdef gfed|cABA cded|cABc A2 AB:|
cdcB AE(3EEE|A,EB,E CEB,E|CEA,E cdcB|A2 AB ceef|ecBA A2 AB|cd
cB AE (3EEE|A,EB,E CEB,E|CEA,E cdcB|A2 AB ceef|ecBc A2 AB|
cdcB AE (3EEE|A,EB,E CEB,E|CEA,E cdcB|A2 AB ceef|ecBc A2 AB|

